packages/core/src/svgs/amb.svg

<svg width="24" height="24" viewBox="0 0 24 24" fill="none" xmlns="http://www.w3.org/2000/svg">
<g clip-path="url(#clip0_31_5917)">
<path d="M0 0H24V24H0V0Z" fill="url(#paint0_linear_31_5917)"/>
<path d="M16.3801 11.5542C16.3282 11.5535 16.2783 11.5341 16.2397 11.4994C16.201 11.4647 16.1763 11.4172 16.1701 11.3656C16.047 10.4433 15.6271 9.58602 14.9738 8.92341C14.3204 8.2608 13.4692 7.82883 12.5487 7.69277C12.4921 7.68427 12.4411 7.65393 12.4066 7.60826C12.3722 7.56258 12.357 7.50522 12.3644 7.44848C12.3815 7.33277 12.4887 7.24277 12.6001 7.25991C14.6444 7.53848 16.2858 9.20134 16.5858 11.3142C16.5934 11.3708 16.5789 11.4282 16.5454 11.4744C16.5119 11.5207 16.4619 11.5523 16.4058 11.5628C16.4058 11.5542 16.3972 11.5542 16.3801 11.5542ZM15.2829 15.2999C15.2571 15.3013 15.2313 15.2974 15.207 15.2886C15.1827 15.2797 15.1604 15.2661 15.1415 15.2485C15.0983 15.2098 15.0723 15.1556 15.0691 15.0977C15.0658 15.0399 15.0857 14.9831 15.1244 14.9399C15.7244 14.2585 16.0929 13.4228 16.1958 12.5185C16.2129 12.3985 16.3201 12.3085 16.4315 12.3299C16.5429 12.3471 16.6329 12.4542 16.6158 12.5699C16.5052 13.5595 16.0939 14.4914 15.4372 15.2399C15.3944 15.2828 15.3344 15.2999 15.2829 15.2999ZM12.5829 16.7656C12.531 16.765 12.4811 16.7455 12.4425 16.7108C12.4039 16.6761 12.3792 16.6286 12.3729 16.5771C12.3558 16.4613 12.4458 16.3413 12.5572 16.3328C13.2693 16.2343 13.9438 15.9539 14.5158 15.5185C14.5378 15.5004 14.5634 15.4872 14.5908 15.4795C14.6183 15.4718 14.647 15.47 14.6752 15.474C14.7034 15.478 14.7305 15.4879 14.7547 15.5029C14.7789 15.5179 14.7997 15.5378 14.8158 15.5613C14.8801 15.6599 14.8629 15.7971 14.7687 15.8656C14.1395 16.3504 13.3952 16.6635 12.6087 16.7742C12.6001 16.7656 12.5915 16.7656 12.5829 16.7656ZM11.4172 16.7656H11.3915C10.3511 16.6139 9.39141 16.1184 8.66523 15.358C7.93905 14.5977 7.48816 13.6162 7.38437 12.5699C7.3782 12.5139 7.39393 12.4576 7.42827 12.4129C7.46261 12.3681 7.51291 12.3384 7.56866 12.3299C7.68009 12.3085 7.78294 12.3985 7.80437 12.5185C7.89918 13.4688 8.30868 14.3602 8.96787 15.0512C9.62706 15.7422 10.4982 16.1933 11.4429 16.3328C11.5544 16.3542 11.6444 16.4613 11.6272 16.5771C11.6209 16.6293 11.5956 16.6774 11.5561 16.7122C11.5165 16.747 11.4656 16.766 11.4129 16.7656H11.4172ZM7.61151 11.5542H7.57723C7.4658 11.5371 7.38437 11.4256 7.39294 11.3056C7.53437 10.3328 7.95009 9.43706 8.61437 8.71706C8.69151 8.62706 8.82866 8.62706 8.91009 8.70848C8.9958 8.78991 8.9958 8.93134 8.91866 9.01277C8.31692 9.66639 7.93088 10.4893 7.81294 11.3699C7.80864 11.4203 7.78553 11.4672 7.74821 11.5014C7.71089 11.5355 7.66209 11.5544 7.61151 11.5542ZM9.42437 8.50277C9.39087 8.50163 9.35805 8.49294 9.32837 8.47736C9.29869 8.46178 9.27291 8.4397 9.25294 8.41277C9.21883 8.36541 9.20465 8.30655 9.21347 8.24885C9.22228 8.19115 9.25338 8.13921 9.30009 8.1042C9.91324 7.65372 10.6292 7.36351 11.3829 7.25991C11.4944 7.24277 11.6101 7.33277 11.6187 7.44848C11.6358 7.56848 11.5458 7.6842 11.4344 7.69277C10.7529 7.77848 10.1058 8.05277 9.54866 8.4642C9.51163 8.4917 9.46613 8.50535 9.42009 8.50277H9.42437Z" fill="white"/>
<path d="M12 15.8874C9.93003 15.8874 8.25003 14.1431 8.25003 12.0131C8.25003 9.8745 9.9386 8.14307 12 8.14307C14.07 8.14307 15.7543 9.88307 15.7543 12.0131C15.7543 14.1516 14.07 15.8874 12 15.8874ZM12 8.57164C11.102 8.58743 10.2469 8.95848 9.62192 9.60352C8.99696 10.2486 8.65313 11.115 8.66574 12.0131C8.66574 13.9074 10.1657 15.4545 12 15.4545C13.8386 15.4545 15.3343 13.9116 15.3343 12.0131C15.3257 10.1188 13.8343 8.57164 12 8.57164ZM7.59431 12.9559C7.85146 12.9559 8.05717 12.7416 8.05717 12.4845C8.05888 12.4222 8.04823 12.3602 8.02584 12.3021C8.00345 12.244 7.96976 12.1909 7.92673 12.1458C7.88369 12.1008 7.83215 12.0648 7.77509 12.0398C7.71804 12.0148 7.65659 12.0013 7.59431 12.0002C7.33717 12.0002 7.13574 12.2145 7.13574 12.4759C7.13574 12.7374 7.34146 12.9516 7.59431 12.9516V12.9559ZM16.4229 11.8716C16.68 11.8716 16.8857 11.6574 16.8857 11.3959C16.8869 11.334 16.8758 11.2725 16.8532 11.2149C16.8305 11.1572 16.7967 11.1046 16.7537 11.06C16.7108 11.0155 16.6594 10.9798 16.6027 10.9551C16.5459 10.9303 16.4848 10.917 16.4229 10.9159C16.1657 10.9159 15.96 11.1302 15.96 11.3959C15.96 11.6531 16.1657 11.8674 16.4229 11.8674V11.8716Z" fill="white"/>
<path d="M13.1487 11.0226C13.1487 10.3798 12.643 9.85693 12.0258 9.85693C11.7227 9.86369 11.4345 9.99003 11.2242 10.2084C11.0138 10.4268 10.8984 10.7195 10.903 11.0226C10.903 11.4298 11.1001 11.7855 11.4087 11.9998L11.4258 11.9141C11.44 11.8389 11.479 11.7707 11.5364 11.7202C11.5939 11.6697 11.6666 11.6399 11.743 11.6355H12.313C12.4672 11.6355 12.6044 11.7641 12.6301 11.9141L12.643 11.9998C12.943 11.7855 13.1487 11.4298 13.1487 11.0226Z" fill="white"/>
<path d="M11.3615 11.953L11.0358 13.8773C11.0058 14.023 11.1215 14.143 11.2758 14.143H12.7758C12.9386 14.143 13.0458 14.023 13.02 13.8773L12.6858 11.9487C12.4972 12.0644 12.27 12.1373 12.0258 12.1373C11.7815 12.1373 11.5543 12.0644 11.3615 11.953Z" fill="white"/>
<path d="M12.33 11.5844H11.7214C11.6388 11.5862 11.5594 11.6167 11.4969 11.6706C11.4343 11.7246 11.3925 11.7986 11.3786 11.8801L11.3657 11.9658C11.5587 12.1043 11.7903 12.1788 12.0279 12.1788C12.2654 12.1788 12.497 12.1043 12.69 11.9658L12.6686 11.8801C12.6557 11.7986 12.6149 11.7241 12.5531 11.6693C12.4914 11.6146 12.4125 11.583 12.33 11.5801V11.5844Z" fill="white"/>
<path d="M20.1728 12.4069C20.1023 12.4072 20.0331 12.3882 19.9726 12.352C19.9122 12.3157 19.8628 12.2636 19.83 12.2012C19.8 12.1584 17.3142 7.71408 12 7.71408C6.68567 7.71408 4.19995 12.1584 4.17424 12.2012C4.14993 12.2478 4.11656 12.2891 4.07608 12.3226C4.0356 12.3561 3.98883 12.3811 3.93852 12.3963C3.88821 12.4115 3.83538 12.4165 3.78312 12.4109C3.73087 12.4054 3.68025 12.3895 3.63424 12.3641C3.54134 12.3093 3.47305 12.2209 3.44353 12.1172C3.41401 12.0135 3.42552 11.9024 3.47567 11.8069C3.58281 11.6098 6.19281 6.85693 12 6.85693C17.7985 6.85693 20.4085 11.6098 20.5242 11.8069C20.5744 11.9024 20.5859 12.0135 20.5564 12.1172C20.5268 12.2209 20.4586 12.3093 20.3657 12.3641C20.3057 12.3898 20.2371 12.4069 20.1728 12.4069Z" fill="white"/>
<path d="M12 17.1431C6.20138 17.1431 3.59138 12.3902 3.47567 12.1931C3.42552 12.0976 3.41401 11.9865 3.44353 11.8828C3.47305 11.7791 3.54134 11.6907 3.63424 11.636C3.68025 11.6106 3.73087 11.5946 3.78312 11.5891C3.83538 11.5836 3.88821 11.5885 3.93852 11.6037C3.98883 11.6189 4.0356 11.644 4.07608 11.6775C4.11656 11.711 4.14993 11.7522 4.17424 11.7988C4.19995 11.8417 6.68138 16.286 12 16.286C17.3185 16.286 19.8 11.8417 19.8257 11.7988C19.85 11.7522 19.8833 11.711 19.9238 11.6775C19.9643 11.644 20.0111 11.6189 20.0614 11.6037C20.1117 11.5885 20.1645 11.5836 20.2168 11.5891C20.269 11.5946 20.3197 11.6106 20.3657 11.636C20.5585 11.7431 20.6271 11.996 20.5242 12.1931C20.4085 12.3988 17.7985 17.1431 12 17.1431Z" fill="white"/>
</g>
<defs>
<linearGradient id="paint0_linear_31_5917" x1="0" y1="12" x2="24" y2="12" gradientUnits="userSpaceOnUse">
<stop stop-color="#22B5FF"/>
<stop offset="1" stop-color="#5810C8"/>
</linearGradient>
<clipPath id="clip0_31_5917">
<rect width="24" height="24" fill="white"/>
</clipPath>
</defs>
</svg>

<svg xmlns="http://www.w3.org/2000/svg" width="24" height="24" fill="none" viewBox="0 0 24 24"><g clip-path="url(#a)"><path fill="url(#b)" d="M0 0h24v24H0z"/><path fill="#fff" d="M16.38 11.554a.214.214 0 0 1-.21-.188 4.286 4.286 0 0 0-3.621-3.673.22.22 0 0 1-.185-.245c.018-.115.125-.205.236-.188 2.044.278 3.686 1.941 3.986 4.054a.223.223 0 0 1-.18.249c0-.009-.009-.009-.026-.009M15.283 15.3a.2.2 0 0 1-.141-.052.22.22 0 0 1-.018-.308c.6-.681.969-1.517 1.072-2.421.017-.12.124-.21.235-.19.112.018.202.125.185.24a4.87 4.87 0 0 1-1.179 2.67.22.22 0 0 1-.154.06m-2.7 1.466a.214.214 0 0 1-.21-.189c-.017-.116.073-.236.184-.244a4.2 4.2 0 0 0 1.959-.814.205.205 0 0 1 .3.042c.064.099.047.236-.047.305a4.6 4.6 0 0 1-2.16.908c-.009-.008-.018-.008-.026-.008m-1.166 0h-.025a4.71 4.71 0 0 1-4.008-4.196.22.22 0 0 1 .185-.24c.111-.021.214.069.235.188a4.286 4.286 0 0 0 3.639 3.815c.111.021.201.128.184.244a.214.214 0 0 1-.214.189zm-3.805-5.212h-.035c-.111-.017-.193-.128-.184-.248a4.8 4.8 0 0 1 1.221-2.589.2.2 0 0 1 .296-.009.22.22 0 0 1 .009.305 4.33 4.33 0 0 0-1.106 2.357.2.2 0 0 1-.201.184m1.812-3.051a.22.22 0 0 1-.171-.09.223.223 0 0 1 .047-.309c.613-.45 1.33-.74 2.083-.844a.21.21 0 0 1 .236.188c.017.12-.073.236-.185.245a4.04 4.04 0 0 0-1.885.771.2.2 0 0 1-.129.039z"/><path fill="#fff" d="M12 15.887c-2.07 0-3.75-1.744-3.75-3.874 0-2.139 1.689-3.87 3.75-3.87 2.07 0 3.754 1.74 3.754 3.87 0 2.139-1.684 3.874-3.754 3.874m0-7.315a3.394 3.394 0 0 0-3.334 3.441c0 1.894 1.5 3.441 3.334 3.441 1.839 0 3.334-1.542 3.334-3.44-.008-1.895-1.5-3.442-3.334-3.442m-4.406 4.384a.47.47 0 0 0 .463-.471.47.47 0 0 0-.463-.485.466.466 0 0 0-.458.476c0 .261.205.476.458.476zm8.829-1.084a.47.47 0 0 0 .463-.476.47.47 0 0 0-.463-.48.47.47 0 0 0-.463.48c0 .257.206.471.463.471z"/><path fill="#fff" d="M13.149 11.023c0-.643-.506-1.166-1.123-1.166a1.15 1.15 0 0 0-1.123 1.166c0 .407.197.763.506.977l.017-.086a.34.34 0 0 1 .317-.278h.57c.154 0 .291.128.317.278l.013.086c.3-.214.506-.57.506-.977"/><path fill="#fff" d="m11.362 11.953-.326 1.924c-.03.146.085.266.24.266h1.5c.163 0 .27-.12.244-.266l-.334-1.928a1.26 1.26 0 0 1-1.325.004"/><path fill="#fff" d="M12.33 11.584h-.609a.356.356 0 0 0-.342.296l-.013.086a1.14 1.14 0 0 0 1.324 0l-.021-.086a.356.356 0 0 0-.339-.3z"/><path fill="#fff" d="M20.173 12.407a.39.39 0 0 1-.343-.206c-.03-.043-2.516-4.487-7.83-4.487s-7.8 4.444-7.826 4.487a.394.394 0 0 1-.54.163.42.42 0 0 1-.158-.557c.107-.197 2.717-4.95 8.524-4.95 5.799 0 8.409 4.753 8.524 4.95a.42.42 0 0 1-.158.557.5.5 0 0 1-.193.043"/><path fill="#fff" d="M12 17.143c-5.799 0-8.409-4.753-8.524-4.95a.42.42 0 0 1 .158-.557.393.393 0 0 1 .54.163c.026.043 2.507 4.487 7.826 4.487s7.8-4.444 7.826-4.487a.393.393 0 0 1 .54-.163.42.42 0 0 1 .158.557c-.116.206-2.726 4.95-8.524 4.95"/></g><defs><linearGradient id="b" x1="0" x2="24" y1="12" y2="12" gradientUnits="userSpaceOnUse"><stop stop-color="#22B5FF"/><stop offset="1" stop-color="#5810C8"/></linearGradient><clipPath id="a"><path fill="#fff" d="M0 0h24v24H0z"/></clipPath></defs></svg>
